X:1
T:MASTER SMITH
M:2/4
Q:1/4=120
K:Eb
B8|G4e4|c4B2A2|G4B4|G4e4|c4B2A2|G4B2B2|A2A2G2G2|
F4B2A2|G4B2B2|A2A2G2G2|F4B2A2|G7/2||
